src/assets/icons/recycle.svg

<?xml version="1.0" encoding="UTF-8" standalone="no"?>
<svg width="124px" height="124px" viewBox="0 0 124 124" version="1.1" xmlns="http://www.w3.org/2000/svg" xmlns:xlink="http://www.w3.org/1999/xlink" xmlns:sketch="http://www.bohemiancoding.com/sketch/ns">
    <!-- Generator: Sketch 3.3.3 (12081) - http://www.bohemiancoding.com/sketch -->
    <title>recycle</title>
    <desc>Created with Sketch.</desc>
    <defs></defs>
    <g id="Page-1" stroke-width="1" fill-rule="evenodd" sketch:type="MSPage">
        <g id="recycle" sketch:type="MSLayerGroup">
            <path d="M61.997,6.314 C31.318,6.314 6.359,31.075 6.359,61.511 C6.359,91.946 31.318,116.707 61.997,116.707 C92.676,116.707 117.635,91.946 117.635,61.511 C117.635,31.075 92.676,6.314 61.997,6.314 L61.997,6.314 L61.997,6.314 Z M61.997,123.016 C27.812,123.016 0,95.425 0,61.511 C0,27.597 27.812,0.006 61.997,0.006 C96.182,0.006 123.994,27.597 123.994,61.511 C123.994,95.425 96.182,123.016 61.997,123.016 L61.997,123.016 L61.997,123.016 Z" id="Fill-1" sketch:type="MSShapeGroup"></path>
            <path d="M48.5921026,75.4632205 C51.6011692,78.2541744 55.099241,80.1148103 58.8802872,80.8263795 L58.8802872,86.9545231 L65.4414769,86.9545231 L65.4414769,80.8810667 C70.9718769,79.7860513 75.4009026,75.5179077 75.4009026,69.7178872 C75.4009026,56.8040821 57.7242256,58.7187692 57.7242256,52.5359385 C57.7242256,49.5809231 60.8490256,48.3771692 63.6361641,48.3771692 C66.1536821,48.3771692 68.7303385,49.4715487 70.2615795,50.8940513 L74.0884103,45.4221538 C71.2453128,43.3427692 68.4022154,42.3030769 65.4414769,41.9749538 L65.4414769,36.0649231 L58.8802872,36.0649231 L58.8802872,42.3577641 C54.1708308,43.6708923 50.3433641,47.2834256 50.3433641,52.5906256 C50.3433641,56.9134564 52.7483282,59.5397128 55.7554872,61.2909744 C60.9030769,64.3006769 68.020041,64.9028718 68.020041,69.8272615 C68.020041,72.6175795 65.7149128,74.6422769 62.4343179,74.6422769 C58.9349744,74.6422769 55.5914256,72.8369641 53.4045744,70.4288205 L48.5921026,75.4632205" id="Fill-4" fill="currentColor" sketch:type="MSShapeGroup"></path>
            <path d="M62.179959,102.805538 C62.1964923,102.805538 62.2111179,102.808082 62.2276513,102.808718 C63.3029538,102.803631 64.3439179,102.670728 65.3982359,102.584246 C66.0652923,102.527651 66.7482462,102.530831 67.4064,102.441805 C79.4496615,100.855877 89.7588308,93.9773744 96.1158974,84.2691282 L100.396123,87.3494154 L98.6957333,72.8674872 L84.4230154,75.8498462 L88.5843282,78.8461949 C88.4743179,79.0197949 88.3751179,79.2010256 88.2606564,79.3739897 C87.8123487,80.0512205 87.3328821,80.7042872 86.8362462,81.3452718 C86.5163897,81.7579692 86.1914462,82.1636718 85.8531487,82.5585641 C85.312,83.1900103 84.7473231,83.8017436 84.1597538,84.388041 C83.8144615,84.7333333 83.4589949,85.0665436 83.098441,85.3946667 C82.4619077,85.9746051 81.8082051,86.5367385 81.1265231,87.0632615 C80.7691487,87.3411487 80.3958769,87.5993231 80.0257846,87.8613128 C79.2970462,88.3763897 78.5568615,88.8755692 77.7836103,89.3289641 C77.4166974,89.5445333 77.0338872,89.7333949 76.6568,89.9343385 C75.8473026,90.3667487 75.0308103,90.7858051 74.1806154,91.1457231 C73.7876308,91.3123282 73.376841,91.4433231 72.9755897,91.5940308 C72.1139487,91.9177026 71.2504,92.2381949 70.3563282,92.4874667 C69.8743179,92.6203692 69.3732308,92.7011282 68.8829538,92.8105026 C68.0384821,93.0019077 67.2003692,93.2066667 66.3317333,93.3274872 C65.3658051,93.4603897 64.3731692,93.5068103 63.3798974,93.5487795 C62.9633846,93.5684923 62.5589538,93.6327179 62.1398974,93.6352615 C62.0387897,93.6352615 61.9414974,93.6168205 61.8403897,93.6161846 C60.0503385,93.6098256 58.311159,93.403159 56.6025026,93.1106462 C55.9704205,93.0006359 55.3453333,92.8728205 54.7266051,92.7259282 C53.4713436,92.4321436 52.2574154,92.0448821 51.0651077,91.6073846 C50.2130051,91.2907077 49.3780718,90.9517744 48.5634872,90.5651487 C47.4691077,90.0513436 46.4058872,89.4898462 45.3846359,88.8590359 C44.6050256,88.3732103 43.8559385,87.8435077 43.1240205,87.2953641 C42.5237333,86.8464205 41.9546051,86.3631385 41.3873846,85.8741333 C39.8516923,84.5425641 38.4374564,83.0819077 37.1828308,81.4800821 C36.9958769,81.2422564 36.7841231,81.0273231 36.6028923,80.7844103 C35.9256615,79.8668103 35.3221949,78.8932513 34.7454359,77.9037949 C32.0206154,73.2541128 30.3335795,67.9182974 30.3087795,62.1411692 L21.1391385,62.1812308 C21.2205333,80.8562667 33.8462769,96.5095179 50.9888,101.2832 C51.1045333,101.314995 51.2215385,101.339159 51.3379077,101.370954 C52.8564308,101.7792 54.4080205,102.093969 55.9907692,102.326708 C56.3029949,102.373128 56.6114051,102.425908 56.9261744,102.465333 C58.6329231,102.675179 60.3587487,102.817621 62.1220923,102.808718 C62.1418051,102.808718 62.1602462,102.805538 62.179959,102.805538 M93.6854974,61.8645538 L102.855138,61.8244923 C102.774379,43.1500923 90.148,27.4974769 73.0054769,22.723159 C72.8897436,22.6907282 72.7708308,22.6665641 72.6550974,22.6347692 C71.1372103,22.2265231 69.5849846,21.9111179 68.0022359,21.6790154 C67.6893744,21.6325949 67.3816,21.5804513 67.0661949,21.5403897 C65.3607179,21.3305436 63.6348923,21.1893744 61.8715487,21.1970051 C61.8524718,21.1970051 61.8353026,21.2008205 61.8155897,21.2008205 C61.7990564,21.2008205 61.783159,21.197641 61.7647179,21.197641 C47.5346051,21.2593231 35.110441,28.6478154 27.8593026,39.7245128 L23.5968821,36.6563077 L25.2985436,51.1382359 L39.5712615,48.1565128 L35.3717949,45.1334564 C35.6903795,44.6361846 35.9765333,44.1147487 36.3199179,43.6346462 C36.4210256,43.4934769 36.5202256,43.3491282 36.6245128,43.2092308 C37.3379897,42.2452103 38.1086974,41.3269744 38.9251897,40.4513436 C39.0828923,40.2809231 39.2444103,40.1136821 39.4072,39.9483487 C40.2122462,39.1210462 41.0598974,38.3369846 41.9514256,37.6012513 C42.1657231,37.4251077 42.3876513,37.2585026 42.6064,37.0880821 C43.4877538,36.3987692 44.3977231,35.7476103 45.3496615,35.1536821 C45.6275487,34.9813538 45.9168821,34.8281026 46.1998564,34.664041 C47.1346256,34.1209846 48.0878359,33.6059077 49.0804718,33.1588718 C49.4391179,32.9973538 49.8149333,32.8708103 50.1805744,32.7226462 C51.1356923,32.3347487 52.0990769,31.9602051 53.0987077,31.6657846 C53.6029744,31.5188923 54.1294974,31.4285949 54.6433026,31.3052308 C55.5437333,31.0883897 56.4397128,30.8588308 57.368759,30.7202051 C58.4421538,30.5637744 59.5454359,30.5046359 60.6506256,30.4594872 C61.0563282,30.4416821 61.4467692,30.373641 61.8562872,30.3710974 C61.9573949,30.3704615 62.0521436,30.3895385 62.1532513,30.3901744 C63.9439385,30.3965333 65.6824821,30.6032 67.3917744,30.8950769 C68.0244923,31.0057231 68.6495795,31.1335385 69.2676718,31.2810667 C70.5203897,31.5748513 71.7343179,31.9602051 72.9247179,32.3983385 C73.7812718,32.7169231 74.6225641,33.0577641 75.4435077,33.4469333 C76.5321641,33.9601026 77.5922051,34.5190564 78.6090051,35.1473231 C79.3892513,35.6337846 80.1377026,36.1634872 80.8708923,36.7129026 C81.4705436,37.1605744 82.0396718,37.6438564 82.6056205,38.1315897 C84.1374974,39.4587077 85.5460103,40.9149128 86.7987282,42.5110154 C86.9914051,42.7539282 87.2076103,42.9752205 87.3920205,43.2232205 C88.0679795,44.1395487 88.6695385,45.1124718 89.2469333,46.1000205 C91.9730256,50.7503385 93.6606974,56.0861538 93.6854974,61.8645538" id="Fill-5" fill="currentColor" sketch:type="MSShapeGroup"></path>
        </g>
    </g>
</svg>

<svg width="124" height="124" xmlns="http://www.w3.org/2000/svg"><g fill-rule="evenodd"><path d="M61.997 6.314c-30.679 0-55.638 24.761-55.638 55.197 0 30.435 24.959 55.196 55.638 55.196s55.638-24.761 55.638-55.196c0-30.436-24.959-55.197-55.638-55.197zm0 116.702C27.812 123.016 0 95.425 0 61.511S27.812.006 61.997.006s61.997 27.591 61.997 61.505-27.812 61.505-61.997 61.505z"/><path d="M48.592 75.463c3.01 2.791 6.507 4.652 10.288 5.363v6.129h6.561V80.88c5.53-1.095 9.96-5.363 9.96-11.163 0-12.914-17.677-11-17.677-17.182 0-2.955 3.125-4.159 5.912-4.159 2.518 0 5.094 1.095 6.626 2.517l3.826-5.472c-2.843-2.08-5.686-3.119-8.647-3.447v-5.91h-6.56v6.293c-4.71 1.313-8.538 4.925-8.538 10.233 0 4.322 2.405 6.949 5.412 8.7 5.148 3.01 12.265 3.612 12.265 8.536 0 2.79-2.305 4.815-5.586 4.815-3.499 0-6.843-1.805-9.03-4.213l-4.812 5.034" fill="currentColor"/><path d="M62.18 102.806l.048.003c1.075-.005 2.116-.138 3.17-.225.667-.056 1.35-.053 2.008-.142 12.044-1.586 22.353-8.465 28.71-18.173l4.28 3.08-1.7-14.482-14.273 2.983 4.161 2.996c-.11.174-.209.355-.323.528-.449.677-.928 1.33-1.425 1.971-.32.413-.645.819-.983 1.214a32.012 32.012 0 01-1.693 1.829c-.346.345-.701.679-1.062 1.007-.636.58-1.29 1.142-1.971 1.668-.358.278-.731.536-1.101.798a31.517 31.517 0 01-2.242 1.468c-.367.216-.75.404-1.127.605-.81.433-1.626.852-2.476 1.212-.393.166-.804.297-1.205.448-.862.324-1.726.644-2.62.893-.482.133-.983.214-1.473.324-.845.19-1.683.396-2.551.516-.966.133-1.959.18-2.952.222-.417.02-.821.084-1.24.086-.101 0-.199-.018-.3-.019-1.79-.006-3.529-.213-5.237-.505a31.5 31.5 0 01-1.876-.385 31.382 31.382 0 01-3.662-1.119 31.004 31.004 0 01-2.502-1.042 31.539 31.539 0 01-3.178-1.706 32.145 32.145 0 01-2.261-1.564c-.6-.449-1.17-.932-1.737-1.42a31.692 31.692 0 01-4.204-4.395c-.187-.238-.399-.453-.58-.696-.677-.917-1.28-1.89-1.858-2.88-2.724-4.65-4.411-9.986-4.436-15.763l-9.17.04c.082 18.675 12.707 34.329 29.85 39.102.116.032.233.056.349.088 1.518.408 3.07.723 4.653.956.312.046.62.099.935.138 1.707.21 3.433.353 5.196.344.02 0 .038-.003.058-.003m31.505-40.941l9.17-.04c-.08-18.675-12.707-34.328-29.85-39.102-.115-.032-.234-.056-.35-.088a40.558 40.558 0 00-4.653-.956c-.313-.046-.62-.099-.936-.139-1.705-.21-3.431-.35-5.194-.343-.02 0-.037.004-.056.004-.017 0-.033-.003-.051-.003-14.23.061-26.655 7.45-33.906 18.527l-4.262-3.069 1.702 14.482 14.272-2.981-4.2-3.024c.32-.497.606-1.018.949-1.498.101-.142.2-.286.305-.426a31.705 31.705 0 012.782-3.26 31.736 31.736 0 012.544-2.348c.215-.176.437-.342.655-.513.882-.69 1.792-1.34 2.744-1.934.278-.173.567-.326.85-.49a31.487 31.487 0 012.88-1.505c.36-.162.735-.288 1.1-.436.956-.388 1.92-.763 2.919-1.057.504-.147 1.03-.237 1.544-.36.9-.218 1.797-.447 2.726-.586 1.073-.156 2.176-.215 3.282-.26.405-.018.796-.086 1.205-.089.101 0 .196.019.297.02 1.79.006 3.53.212 5.239.504.632.11 1.258.239 1.876.386 1.252.294 2.466.68 3.657 1.117.856.319 1.698.66 2.519 1.049a31.812 31.812 0 013.165 1.7c.78.487 1.529 1.016 2.262 1.566.6.448 1.169.93 1.735 1.419a31.682 31.682 0 014.193 4.379c.192.243.409.464.593.712.676.917 1.278 1.89 1.855 2.877 2.726 4.65 4.414 9.986 4.438 15.765" fill="currentColor"/></g></svg>
